X:146
T:Sean Reid's Favourite
Z:robin.beech@mcgill.ca
S:Victoria Bar, Glasgow
M:4/4
L:1/8
K:G
DGG2 BGG2 | cAA2 dcAG | D3G ABBd | cAdc AFG2 |
DGG2 BGG2 | cAA2 dcAc | g3a gfde |1 fedc AGGE :|2 fedc AGGd |:
g3a gfde | f3g fdcA | g3a gfde | fedc AGGd |
g3a gfde | f3g fdcA | g3a bgag |1 fedc AGGd :|2 fedc AGGE |]
